mobile/apps/auth/assets/custom-icons/icons/render.svg

<?xml version="1.0"?>
<svg xmlns="http://www.w3.org/2000/svg" width="512" height="512" viewBox="0 0 512 512" fill="none">
<rect width="512" height="512" fill="white"/>
<path d="M358.635 63.3162C307.498 60.9566 264.496 97.209 257.16 144.973C256.869 147.19 256.433 149.335 256.07 151.48C244.666 210.971 191.568 256.019 127.792 256.019C105.056 256.019 83.7007 250.298 65.1054 240.288C62.8536 239.072 60.166 240.645 60.166 243.148V255.947V448.793H255.997V304.212C255.997 277.613 277.934 256.019 304.955 256.019H353.913C409.336 256.019 453.935 210.757 451.756 155.699C449.795 106.147 408.973 65.6758 358.635 63.3162Z" fill="black"/>
</svg>

<svg xmlns="http://www.w3.org/2000/svg" fill="none" viewBox="0 0 512 512"><path fill="#fff" d="M0 0h512v512H0z"/><path fill="#000" d="M358.635 63.316c-51.137-2.36-94.139 33.893-101.475 81.657-.291 2.217-.727 4.362-1.09 6.507-11.404 59.491-64.502 104.539-128.278 104.539-22.736 0-44.091-5.721-62.687-15.731-2.251-1.216-4.939.357-4.939 2.86v205.645h195.831V304.212c0-26.599 21.937-48.193 48.958-48.193h48.958c55.423 0 100.022-45.262 97.843-100.32-1.961-49.552-42.783-90.023-93.121-92.383Z"/></svg>
